!!!COM: Anonim
!!!CDT: [?]
!!!OTL@@POL: Dziećiątko dostoÿne
!!!TXO: Polish
!!!ODT: 
!!!GTL: Hymnbook A
!!!ARL: Opactwo św. Wojciecha, Staniątki 
!!!voices:	1
**kern
*staff1
*I"[Canto]
=1-
*oclefC1
*clefG2
!*k[b-]
*met(c|)
*M2/1
0r
=-
1r
2b
2b
=-
2.cc
4b
2a
2g
=-
0r
=-
1r
2b
2a
=-
2a
2g
2a
2a
=-
2b
2a
2a
2g
=-
0a
=-
0r
=-
0r
=-
0r
=-
2a
2ee
2ee
2dd
=-
2ee
2ee
2cc
2ee
=-
2.dd
4cc
2b
2a
=-
0r
=-
1r
2b
2b
=-
2.cc
4b
2a
[2g
=-
2g]
2cc
2b
2b
=-
2a
1b
2b
=-
2a
2a
2g
2a;
=-
1a
2b
[2cc
=-
2cc]
2cc
1b
=-
2b
1b
2b
=-
1cc
2b
2a
=-
1g
1a
=-
2b
1cc
2cc
=-
1b
2b
[2b
=-
2b]
2a
1a
=-
2g
1a
2a
=-
1b
2b
[2a
=-
2a]
2g
1a;
==
*-
!!title: @{OTL}, @{GTL}: @{pag}, ed. @{ENC}
!!!pag: p. 26v
!!!GTL: Hymnbook A
!!!EFL: 
!!!YEM: Creative Commons CC/BY/NC/SA 4.0
!!!ENC: Marcin Konik
!!!END: 2015-04-15
!!!EED: Marcin Konik
!!!EEV: 
!!!ONB: Encoded in vim by Marcin Konik
!!!CharacterEncoding: utf-8
!!!RDF**kern: l=long note in original notation
!!!RDF**kern: i=editorial accidental
!!muse2ps: z14jc180F
